X:1
T:O magnum misterium
%%score [ 1 2 3 4 ]
L:1/8
Q:1/4=170
M:4/4
K:C
V:1 treble nm="Cantus primus" snm="Cantus primus"
V:2 treble nm="Contratenor" snm="Contratenor"
V:3 treble nm="Tenor" snm="Tenor"
V:4 treble nm="Bassus" snm="Bassus"
V:1
"^Q""^:" x2 x2 ||[K:F] z16 x4 | z16 | z16 |[M:4/2] z16 x4 | D8 F12 x2 | E4 F4 G8 x8 | F4 E8 x6 | %8
w: |||||O ma-|gnum mi- ste-|ri- um,|
w: ||||||||
 z8 E4 F8 | G4 A3 A D4 z4 | E4 F4 G4 A6 | A2 D4 B8 A4 | G8 x8 | F8 A4 B4 x4 | A4 A,4 z4 F4 | %15
w: et ad-|mi- ra- bi- le,|et ad- mi- ra-|bi- le sa- cra-|men-|tum, sa- cra-|men~- tum, et|
w: |||||||
 G4 A4 B6 B2 x4 | A12 c8 x8 | B4 A8 G16 | z8 z4 B4 | F4 G4 D6 E2 x8 | F8 z4 d4 | A4 B4 F6 G2 | %22
w: ad- mi- ra- bi-|le sa-|cra- men- tum,|ut|a- ni- ma- li-|a, ut|a- ni- ma- li-|
w: |||||||
 A4 B4 c8 | B4 d8 c2 B2 | A4 c8 =B4 | c8 z4 F4 x4 | B8 G4 c6 | B2 G4 A4 B8 | A4 B8 F8 x2 | D8 x12 | %30
w: a vi- de-|rent Do- mi- *|num na- *|tum, vi-|de- rent Do-|mi- num na- *|* tum, na-||
w: ||||||||
 E8 F8 | z4 F4 G4 B4 | A4 G4 F6 E2 | D8 z4 E4 | F4 A4 G4 F4 | E6 D2 ^C4 C4 x2 | D8 z4 A4 x2 | %37
w: * tum|ja- cen- tem|in prae- se- pi-|o, ja-|cen- tem in prae-|se- * * pi-|o, ja-|
w: |||||||
 B4 d4 c4 B4 | A6 G2 F4 A8 | G8 F4 E8 | z4 E4 F4 A4 x8 | G12 F4 x8 | E12 E4 |"F#" x16 |] %44
w: cen- tem in prae-|se- pi- o, prae-|se- pi- o,|ja- cen~- ~tem|in prae-|se- pi-||
w: |||||||
[M:4/4]"^Q""^:" x2 x2 x20 |"^Beata virgo" A8 B12 | A4 G8 A8 | z8 z16 |[M:4/2] z4 c8 F4 x8 | %49
w: |Be- a|ta vir- go,||cu- jus|
w: |||||
 A6 A2 G12 | A8 D4 F6 x2 | E2 D8 x10 | z4 E4 F16 | F8 E4 F6 x2 | G2 A2 B2 c8 z4 x2 | d8 c4 A4 x4 | %56
w: vi- sce- ra,|||por- ta-|re, por- ta-|* * * re,|Do- mi~- ~num|
w: |me- ru- e-|* runt|||||
 x4- x14 | x4 B2 A2 G8 x4 | z4 B8 A4 x8 | F4 A8 G2 F2 x2 |"^-" !fermata!x12- x4 x14 |] %61
w: Chri-|* * stum,|Do- mi-|num Chri- * *|stum.|
w: |||||
"^Versus" D16 | F8 F8 | G16 | D8 z4 x4- | x2 E2 F2 G2 A2 B2 c4 | F4 A4 B8 | G8 z8 | %68
w: A-|ve Ma-|ri-|a, A-||ve Ma- ri-|a,|
w: |||||||
[M:4/2] z4 c6 c2 d4 | B6 c2 A8 | z2 F3 G A2 B4 G4 x2 | c6 B2 A2 G2 F2 A3 | %72
w: gra- ti- a|ple- * na,|Do- mi~- ~nus te- cum,|te- * * * cum, Do-|
w: ||||
 B c2 d6 c2 B2 A2 G2 x13 | A2 BAGF G8"A" x16 || x17 | x30 |] %76
w: mi~- ~nus te- * * * *||||
w: ||||
V:2
"^Q""^:" x2 x2 ||[K:F] A,8 D12 | C4 D4 E6 D2 | D4 G,4 x4- x4 |[M:4/2] x4 ^C4 D8 x4 | z8 A,4 D8 x2 | %6
w: |O ma-|gnum mi- ste- ri-|um, mi- ste-|ri- um,|O ma-|
w: ||||||
 ^C4 D4 E8 x8 | D4 ^C8 x6 | z16 x4 | z8 z4 A,4 | B,4 C4 D6 D2 x2 | C4 F8 E2 D2 x2 | E4 F8 E4 | %13
w: gnum mi- ste-|ri- um,||et|ad- mi- ra- bi-|le sa- * *|* cra- men-|
w: |||||||
 F4 A8 G2 F2 x4 | E8 F4 D4 | z4 C4 D4 E4 x4 | F6 F2 C4 A6 x10 | G2 G8 ^F4 G8 x6 | z4 G4 D4 _E4 | %19
w: tum, sa- cra *|* men~- ~tum,|et ad- mi-|ra- bi- le sa-|cra~- ~men- * tum,|ut a- ni-|
w: ||||||
 B,6 C2 x16 | D8 z8 | z4 D4 A,4 B,4 | F,6 G,2 A,4 D4 | _E4 D4 C6 C2 | D4 B4 F4 G4 | %25
w: ma- li-|a|ut a- ni-|ma- li- a vi-|de- rent do- mi-|num, ut a- ni-|
w: ||||||
 C6 D2 _E4 D4 x4 |"^(  )" E4 E4 F3 F C4 x2 | G,4 B,8 _E,4 x2 | z4 _E6 D2 B,4 x6 | F8 D4 D8 | %30
w: ma- li- a vi-|de- rent Do- mi- num||Do- mi- num|na- tum, na-|
w: ||vi- de- rent|||
 C4 B,8 x4 | z8 z4 C4 | D6 F2 E4 D4 | C6 B,2 A,4 A,4 | B,4 D8 ^C4 | D2 F2 E4 D8 x2 | z8 z4 E4 x2 | %37
w: * tum,|ja-|cen- tem in prea-|se- pi- o, in|prae- se- pi-|* * * o.|ja-|
w: |||||||
 F4 A4 G4 F4 | G6 D2 E2 F2 G2 E2 x4 | F8 F,8 x4 | G,8 A,6 =B,2 x8 | ^C8 z4 C4 x8 | D4 F4 E4 D4 | %43
w: cen- tem in prae-|se- * * * * pi-|o, in|prae- se- pi-|o, ja-|cen~- ~tem in prae-|
w: ||||||
 ^C4 D8 C2 =B,2 |] ^C4 C4"D" x16 |[M:4/4]"^Q""^:" x2 x2 x16 | z4 D8 G6 x2 | F2 F8 E4 F8 x2 | %48
w: se- * * *|* pi-||Be- a-|ta vir- * go,|
w: |||||
 z8 z16 | x20 |[M:4/2] F8 C8 x4 | F6 E2 D4 D4 x4 | E8 D8 x8 | A,4 F8 E2 D2 x4 | %54
w: ||cu- jus|vir- * * sce-|ra, *||
w: ||||* me-|ru- e- * *|
 ^C8"^(  )" =C4 D6 x2 | C2 B,4 A,4 F,4 A,6 | B,2 A,4 F6 F2 C4 | D3 E F4 F8 x4 | C6 D2 x16 | %59
w: * por- ta-|* * re, por- ta-|* re, Do- mi~~- ~num|Chri * * stum,|Do- mi-|
w: runt, * *|||||
 E2 DE F8 E4 x2 | z4 G6 F2 D8 x10 |] E6 F2 D8 | ^C2 =B,2"^-" !fermata!x8 x4 | z4 G,6 A,2 B,2 C2 | %64
w: num Chri * * stum,|Do- mi- num|Chri- * *||A * * *|
w: |||||
 D2 E2 F4 B,4 D4 | _E8 C8 | B,4 D6 C2 B,2 A,2 | G,4 D4 F4 C4 | z4 F6 F2 G4 | E8 C4 x4- | %70
w: * * * ve Ma-|ri- a,|Ma- ri- * * *|a, Ma- ri- a,|gra- ti- a|ple- na, gra-|
w: ||||||
[M:4/2] x2 G2 A2 G3 F A2 G2 F4 | ED E4 F8 z2 x | D3 E F2 G4 E2 x2- x16 |xF G2 A4 F4 z2 F3 x13 || %74
w: * * * ti- a ple- *|* * * na,|Do~- ~mi~- nus te- cum, Do-|mi~- ~nus te- cum, Do-|
w: ||||
 G A2 B6 A2 G2 F2 E2 | F2 GFED E2 F4 E2"F" x16 |] %76
w: mi~- ~nus te- * * * *||
w: ||
V:3
"^Q""^:" x2 x2 ||[K:F][K:treble-8] z8 F8 x4 | A12 G4 | A4 B8 A4 |[M:4/2][K:treble-8] G8 A4 B6 x2 | %5
w: |O|ma- gnum|mi- ste- ri-|um. O ma-|
w: |||||
 A2 A4 F6 G2 A8 | A2 B4 B2 A8 x8 | z4 E4 x10 | F4 G4 A6 A2 x4 | D4 B4 F2 A4 GF | G4 A4 D8 x2 | %11
w: gnum mi- ste- ri- um,|mi- ste- ri- um,|et|ad- mi- ra- bi-|le sa- cra~- ~men- * *|* * tum,|
w: ||||||
 z16 x2 | z4 A4 B4 c4 | d6 d2 A4 d8 | ^c4 d8 G4 | z4 z4 G4 x8 | A2 B2 c6 c2 F4 x12 | %17
w: |et ad- mi-|ra- bi- le sa-|cra- men- tum,|et|ad- mi- ra- bi- le|
w: ||||||
 f4 d2 d4 c2 A4 x12 | =B4 g4 d4 _e4 | B6 c2 d8 x8 | z4 B4 F4 G4 | D6 E2 F8 | A4 d8 B4 | c4 B8 A4 | %24
w: sa- cra~- ~men- * *|tum, ut a- ni-|ma- li- a,|ut a- ni-|ma- li- a|vi- de- rent|Do- * mi-|
w: |||||||
 B4 F4 B4 G4 | A8 z4 G8 | c4 A4 A4 x6 | d8 B4 _e6 | d2 B4 f6 _ed c8 | B8 z4 A4 x4 | B4 d4 x8 | %31
w: num na- * *|tum, na-|* tum, vi-|de- rent Do-|mi- num na- * * *|tum, ja-|cen- tem|
w: |||||||
 c4 B4 A6 G2 | F8 z8 | z8 z4 F4 | G4 B4 A6 G2 | FE D4 ^C2 D2 B4 A4 | GF G4 A8 z4 | A4 B4 d6 d2 | %38
w: in prae- se- pi-|o,|ja-|cen- tem in prae-|se- * * pi- o, prae- se-|* * pi- o,|in prae- se- pi-|
w: |||||||
 d4 z8 x8 | z4 c4 d4 f4 x4 | e4 d4 ^c6 d2 x8 | e4 E4 F4 A4 x8 | z4 F4 G4 B4 | A6 B2 c2 B2 A2 G2 |] %44
w: o,|ja- cen~- ~tem|in prae- se- pi-|o, ja- cen~- ~tem,|ja- cen~- ~tem|in prae~~- ~~se- * * *|
w: ||||||
 A6 A2"A" x16 |[M:4/4]"^Q""^:" x2 x2 x16 | z16 x4 | z16 x8 | F8 B12 x4 | A4 G8 x8 | %50
w: * pi-||||Be- a-|ta vir-|
w: ||||||
[M:4/2][K:treble-8] A8 z4 A8 | A4 =B6 B2 c8 | F6 G2 F2 D2 A8 x4 | G4 x16 | A8 z8 x4 | %55
w: go, cu-|jus vi- sce- ra||||
w: ||me- ru- e * *||runt,|
 D4 F6 G2 A2 B2 x4 | c4 d8 c4 x2 | A8 B8 x4 | F4 A8 G2 F2 x8 | G8 z4 G6 | F2 D4 F6 G2 A16 |] %61
w: por- ta- * * *|re, Do- mi-|num Chri-|stum, Chri- * *|stum, Do-|mi- num Chri- * *|
w: ||||||
"^-" !fermata!x12- x4 | z16 | z16 | z4 C6 D2 _E2 F2 | G2 A2 B4 F4 G4 | B8 F4 A4 | d6 c2 B2 A2 G4 | %68
w: stum.|||A- * * *|* * * ve Ma-|ri- a, Ma-|ri- * * * a,|
w: |||||||
 z4 c6 c2 d4 |[M:4/2][K:treble-8] B4 c4 A4 B4 | G8 z2 F3 G A2 x2 | B4 F4 z4 z2 x2- x | %72
w: gra- ti- a|ple- * * *|na, Do- mi~- ~nus|te- cum, Do-|
w: ||||
xd e2 f6 e2 d6 x12 | c2 B2 A2 G8 c16 || %74
w: mi~- ~nus te- * *|* * * cum, te-|
w: ||
"F""^[da capo""^Beata Virgo""^al fine}""^Beata Virgo, ut supra" x16 x | x30 |] %76
w: ||
w: ||
V:4
"^Q""^:" x2 x2 ||[K:F][K:bass] z8 D,8 x4 | F,12 E,4 | F,4 G,8 F,4 |[M:4/2] E,8 D,4 G,8 | %5
w: |O|ma- gnum|mi- ste- ri-|um. mi- ste-|
w: |||||
 F,4 D,8 A,,8 x2 | D,4 G,,4 A,,16 | A,,4 B,,4 C,4 D,6 | D,2 G,,4 D,12 x2 | C,4 B,,8 A,,4 | %10
w: ri- um, mi-|ste- ri- um,|et ad- mi- ra-|bi- le sa-|cra- men- tum,|
w: |||||
 D,4 F,4 G,8 x2 | F,4 z8 x6 | z4 D,4 F,4 G,4 | A,6 A,2 D,4 B,8 | A,4 G,8 x4 | F,8 F,12 | %16
w: sa- cra- men-|tum,|et ad- mi-|ra- bi- le sa-|cra- men-|tum, sa-|
w: ||||||
 G,4 D,8 G,,16 | G,,8 G,,4 G,,4 x12 | B,,12 B,,4 | B,,4 B,,4 D,16 | D,8 x8 | z4 G,4 _E,4 F,4 | %22
w: cra- men- tum,|ut a- ni-|ma- li-|a vi- de-|rent|ut a- ni-|
w: ||||||
 B,,6 C,2 D,4"^(  )" E,4 | F,8 G,8 | C,6 C,2 F,8 | z4 B,,4 _E,4 C,4 x4 | G,6 G,2 F,8 x2 | %27
w: ma- li- a vi-|de- rent|Do- mi- num,|vi- de- rent|Do- mi- num|
w: |||||
 F,8 B,,8 x2 | z4 F,4 G,4 B,4 x6 | A,4 G,4 F,6 E,2 x4 | D,8 C,4 B,,4 | F,4 G,4 D,8 | z16 | %33
w: na- tum,|ja- cen- tem|in prae- se- pi-|o, in prae-|se- pi- o,||
w: ||||||
 z4 A,,4 B,,4 D,4 | C,6 B,,2 A,,6 A,,2 | D,8 z4 D,4 x2 | G,4 B,4 A,4 G,4 x2 | F,6 E,2 D,8 | %38
w: ja- cen- tem|in prae- se- pi-|o, ja-|cen- tem in prae-|se- pi- o,|
w: |||||
 C,4 B,,4 A,,12 | A,,4 A,,8 D,8 | G,,8 A,,16 | A,,8"B" x16 |[M:4/4]"^Q""^:" x2 x2 x12 | z16 |] %44
w: in prae- se-|pi- o, in|prae- se-|pi-|||
w: ||||||
 z16 x8 | z4 D,8 G,6 x2 | F,2 F,8 E,4 x6 |[M:4/2] F,8 z4 F,8 x4 | D,4 G,6 G,2 C,8 x4 | %49
w: |Be- a-|ta vir- *|go, cu-|ius vi- sce- ra|
w: |||||
 D,12 A,,4 x4 | B,,8 x12 | A,,8 A,,4 B,,6 x2 | C,2 D,2 E,2 F,8 z4 x6 | D,4 F,8 F,8 | %54
w: ||* por- ta-|* * * re,|por- ta- re|
w: me- ru-|e-|runt, * *|||
 B,,6 C,2 D,4 F,8 | E,2 D,2 x16 | C,8 C,6 B,,2 x2 | G,,8 D,12 | C,2 B,,2 A,,8"^-" !fermata!x12- | %59
w: Do- mi- num Chri-||stum, Do- mi-|num Chri-|* * * stum.|
w: |||||
 x4 x14 | z16 x14 |] z16 | z16 | z16 | z16 | z16 | z16 |[M:4/2] z16 | z16 | z16 |[M:4/2] z24 | %71
w: ||||||||||||
w: ||||||||||||
 z17 | z30 | x30 || x17 | x30 |] %76
w: |||||
w: |||||

